X:1
T:Title
%%score { ( 1 3 ) | 2 }
L:1/8
M:4/4
K:A
V:1 treble nm="Grand Piano"
V:3 treble 
V:2 bass 
V:1
 z4 z2 z[Q:1/4=100] [CE] | [CE][CE][DF][CE] [A,C] [CE]2 [CE] | [DF] [FA]2 [DA] [DF] [CE]3 | %3
 [CE][CE][EA]B ccBA | z2 B2 z4 | [CE][CE][DF][CE] [A,C] [CE]2 [CE] | [DF] [FA]2 [DA] [DF] [CE]3 | %7
 [CE][CE][EA]B cc[Fd][Fd] | [Ec]2 [DB]2 [CA]4 | ceee c c2 c | [DGB] [DGB]2 [EGc] [CA] [CA]3 | %11
 [DFA][DFA][A,EG][A,DF] [A,CE][A,CE][CEA][Ec] | [EB]2[K:bass][K:treble] [^DB]2 B4[K:bass] | %13
 [Ec][Ec][Ec][DEB] [CEA] [CEA]2 [A,EG] | [A,DF] [A,FA]2 [DA] [DF] [CE]3 | %15
 [CE][CE][EA]B cc[Fd][Fd] |[M:8/4] [Ec]2 [DB]2 [CA]4 z8 |] %17
V:2
 z4 z2 z [A,,A,] | [A,,A,][A,,A,][A,,A,][A,,A,] [A,,E,] [A,,A,]2 [A,,A,] | %2
 [D,A,] [D,A,]2 [D,F,] [A,,A,] [A,,A,]3 | [A,,A,][A,,A,][C,A,][E,G,E] [A,E][A,E][A,DE][A,CE] | %4
 [G,B,E]2 .[F,B,^D]2 [E,G,=D]3 [E,G,D] | [A,,A,][A,,A,][A,,A,][A,,A,] [A,,E,] [A,,A,]2 [A,,A,] | %6
 [D,A,] [D,A,]2 [D,F,] [A,,A,] [A,,A,]3 | [A,,A,][A,,A,][C,A,][E,G,E] [A,E][A,E][D,A,][D,A,] | %8
 [E,A,]2 [E,G,]2 [A,,A,]4 | [A,E][A,CE][A,CF][A,CG] [A,EA] [A,EA]2[K:bass] [A,E] | %10
 E, E,2 E, F, F,3 | D,D,D,D, A,,A,,A,,[A,,A,] | .[B,,G,]2 [B,,F,]B,, [E,G,E]4 | %13
 [A,,A,][A,,A,][A,,A,]A,, A,, A,,2 C, | D, D,2 [D,F,] [A,,A,] [A,,A,]3 | %15
 [A,,A,][A,,A,][C,A,][E,G,E] [A,E][A,E][D,A,][D,A,] |[M:8/4] [E,A,]2 [E,G,]2 [A,,A,]4 z8 |] %17
V:3
 x8 | x8 | x8 | x8 | B2 z A, B3 E | x8 | x8 | x8 | x8 | x8 | x8 | x8 | %12
 z[K:bass] [B,,G,][K:treble] z F, z[K:bass] D,C,B,, | x8 | x8 | x8 |[M:8/4] x16 |] %17

